X:1
T:I like you all
T:I like you all
T:The Balkan Princess
T:Paul Rubens
C:Paul Rubens
%%score 1 [ 2 3 ] { ( 4 7 ) | ( 5 6 ) }
L:1/8
Q:1/4=86
M:2/4
K:F
V:1 treble nm="Princess" snm="P"
V:2 treble-8 nm="Tenor" snm="T."
V:3 bass nm="Bass" snm="B."
V:4 treble nm="Piano"
V:7 treble 
V:5 bass 
V:6 bass 
V:1
"^Moderato" z4 | z4 | z4 | z4 | z4 | z4 | z4 | z4 ||"^princess" A/ B/ c2 A | G D G D | E C E C | %11
w: ||||||||1.Gen- tle- men, I|thank you for the|hon- our you are|
 F/ G/ A3 | A/ B/ c2 A | ^G E G E | =B ^G B d | c/ =B/ A3 | z4 | z4 | z4 | z4 | _G/ _A/ B2 G | %21
w: do- ing me!|What a com- pli-|ment to think that|five of you are|woo- ing me!|||||Real- ly I must|
 F _D F D | _E C E C | _D/ _E/ F3 | z4 | z4 | z4 | z4 | z4 | z4 | z4 | z4 | z4 | d d/ d/ ^c/ c/ c | %34
w: ask you, please, to|leave off in- ter-|view- ing me!||||||||||If your pos- ses- sions are|
 d d e2 | c c/ c/ =B/ B/ B | c c d2 | z4 | z4 | z4 | z4 | z4 | z4 | z4 | z4 | d d/ d/ ^c c | %46
w: great or small,|That does- n't mat- ter to|me at all!|||||||||No mat- ter what you|
 d d e2 | c c/ c/ =B/ B/ B/ B/ | c4- | c2 d A | D4- | !fermata!D2 E !fermata!c | F4- | F z z2 | %54
w: say or do,|I'm ve- ry sor- ry, but I|can't|_ No, I|can't|_ Think of|you!|_|
 z4 | z4 | z4 | z4 || A/ B/ c2 A | G D G D | E C E C | F/ G/ A3 | A/ B/ c2 A | ^G E G E | %64
w: ||||2.Gen- tle- men, I|do not wish to|be at all un-|kind to you;|Still, you must re-|mem- ber I am|
 =B ^G B d | c/ =B/ A3 | z4 | z4 | z4 | z4 | _G/ _A/ B2 G | F _D F D | _E C E C | _D/ _E/ F3 | z4 | %75
w: bound to speak my|mind to you.|||||You are all so|hand- some, you must|not think I am|blind to you!||
 z4 | z4 | z4 | z4 | A A/ A/ ^G G | A A3 | G G/ G/ ^F F | G4 | z4 | z4 | z4 | z4 | A A/ A/ ^G G | %88
w: ||||I don't re- quire a|cas- tle,|I've all the land I|want!|||||Mo- tors and yachts and|
 A A3 | G G/ G/ ^F F | G4 | F G/ G/ A c/ c/ | E F (^FG) | =F E/ E/ D E | C4 | z4 | z4 | %97
w: mon- ey|Don't move my heart one|jot;|I like a man for the|thing he is, _|Not for the things he's|got!|||
 c c/ c/ =B/ B/ B/ B/ | c4- | c2 d A | D4- | !fermata!D2 E !fermata!c | F4- | F z z2 | z4 | z4 | %106
w: I'm ve- ry sor- ry, but I|can't|_ no, I|can't|_ Mar- ry|you!|_|||
 z4 | z4 | z4 | z4 | z4 | z4 | z4 | z4 | z4 | z4 | z4 | z4 | z4 | z4 | z4 | z4 | z4 | z4 | z2 d A | %125
w: ||||||||||||||||||No, I|
 D4- | !fermata!D2 E !fermata!c | F4- | F z z2 | z4 | z4 | z4 | z4 | z4 |] %134
w: can't|_ Mar- ry|you.|_||||||
V:2
 z4 | z4 | z4 | z4 | z4 | z4 | z4 | z4 || z4 | z4 | z4 | z4 | z4 | z4 | z4 | z4 |"^Dukes" d3 B | %17
w: ||||||||||||||||Oh! your|
 A F G D | F C E G | F2- F z | z4 | z4 | z4 | z4 | _A3 F | E C _A F | E C _A F | c4 | z4 | %29
w: high- ness, we most|hum- bly kiss your|hand! _|||||Oh! your|High- ness, help us,|please, to un- der-|stand!||
"^1st duke" A A/ A/ ^G G | A A3 | z4 | z4 | z4 | z4 | z4 | z4 |"^3rd duke" A A/ A/ ^G G | A A3 | %39
w: I've got a moat- ed|cas- tle!|||||||I have a big bank|bal- ance!|
 z4 | z4 |"^5th duke" F G/ G/ A c/ c/ | E F (^FG) |"^all" =F E/ E/ D/ D/ E | C4 | z4 | z4 | z4 | %48
w: ||I have a yacht in the|South of France. _|I am the rich- est by|far!||||
 z c A G | ^F2 z2 | z2 G ^F | !fermata!G2 z2 | z4 | z4 | z4 | z4 | z4 | z4 || z4 | z4 | z4 | z4 | %62
w: Oh, don't say|that!|Oh, prin-|cess!|||||||||||
 z4 | z4 | z4 | z4 | d3 B | A F G D | F C E G | F2- F z | z4 | z4 | z4 | z4 | _A3 F | E C _A F | %76
w: ||||Oh, your|High- ness, you are|ab- so- lute- ly|right! _|||||Oh, your|High- ness, you are|
 E C _A F | c4 | z4 | z4 | z4 | z4 | z4 | d d/ d/ ^c/ c/ c | d d e2 | c c/ c/ =B/ B/ B | c c d2 | %87
w: real- ly too po-|lite!||||||If you've no fan- cy for|things like these,|You are ex- ceed- ing- ly|hard to please!|
 z4 | z4 | z4 | z4 | z4 | z4 | z4 | z4 | d d/ d/ ^c c | d d e2 | z4 | z c A G | ^F2 z2 | z2 G ^F | %101
w: ||||||||You mean to say that|we won't do!||Oh, don't say|that!|Oh, prin-|
 !fermata!G2 z2 | z4 | z4 | z4 | z4 | z4 | z4 | z4 | z4 | z4 | z4 | z4 | z4 | z4 | z4 | z4 | z4 | %118
w: cess!|||||||||||||||||
 z4 | z4 | z4 | z4 | z4 | z4 | z4 | z2 G ^F | !fermata!G2 z2 | z4 | z4 | z4 | z4 | z4 | z4 | z4 |] %134
w: |||||||Oh, prin-|cess!||||||||
V:3
 z4 | z4 | z4 | z4 | z4 | z4 | z4 | z4 || z4 | z4 | z4 | z4 | z4 | z4 | z4 | z4 | B,3 G, | %17
w: ||||||||||||||||Oh! your|
 F, F, G, D, | F, C, E, G, | F,2- F, z | z4 | z4 | z4 | z4 | _A,3 F, | E, C, _A, F, | %26
w: high- ness, we most|hum- bly kiss your|hand! _|||||Oh! your|High- ness, help us,|
 E, C, _A, F, | C4 | z4 | z4 | z4 |"^2nd duke" G, G,/ G,/ ^F, F, | G,4 | z4 | z4 | z4 | z4 | z4 | %38
w: please, to un- der-|stand!||||I've got a large es-|tate!||||||
 z4 |"^4th duke" G, G,/ G,/ ^F, F, | G,4 | z4 | z4 | =F, E,/ E,/ D,/ D,/ E, | C,4 | z4 | z4 | z4 | %48
w: |I have a mo- tor-|car!|||I am the rich- est by|far!||||
 z C A, G, | ^F,2 z2 | z2 G, ^F, | !fermata!G,2 z2 | z4 | z4 | z4 | z4 | z4 | z4 || z4 | z4 | z4 | %61
w: Oh, don't say|that!|Oh, prin-|cess!||||||||||
 z4 | z4 | z4 | z4 | z4 | B,3 G, | F, F, G, D, | F, C, E, G, | F,2- F, z | z4 | z4 | z4 | z4 | %74
w: |||||Oh, your|High- ness, you are|ab- so- lute- ly|right! _|||||
 _A,3 F, | E, C, _A, F, | E, C, _A, F, | C4 | z4 | z4 | z4 | z4 | z4 | B, B,/ B,/ A,/ A,/ A, | %84
w: Oh, your|High- ness, you are|real- ly too po-|lite!||||||If you've no fan- cy for|
 B, B, =C2 | A, A,/ A,/ ^G,/ G,/ G, | A, A, A,2 | z4 | z4 | z4 | z4 | z4 | z4 | z4 | z4 | %95
w: things like these,|You are ex- ceed- ing- ly|hard to please!|||||||||
 D D/ D/ ^C C | D D E2 | z4 | z C A, G, | ^F,2 z2 | z2 G, ^F, | !fermata!G,2 z2 | z4 | z4 | z4 | %105
w: You mean to say that|we won't do!||Oh, don't say|that!|Oh, prin-|cess!||||
 z4 | z4 | z4 | z4 | z4 | z4 | z4 | z4 | z4 | z4 | z4 | z4 | z4 | z4 | z4 | z4 | z4 | z4 | z4 | %124
w: |||||||||||||||||||
 z4 | z2 G, ^F, | !fermata!G,2 z2 | z4 | z4 | z4 | z4 | z4 | z4 | z4 |] %134
w: |Oh, prin-|cess!||||||||
V:4
 (d/e/f/d/ c/A/F/G/ | A) [FA]2 (F/G/ | A) [FA]2 [EG] | [Fc]4 | (d/e/f/d/ c/A/F/G/ | %5
 A) [FA]2 (F/G/ | A) [FA]2 [EG] | [CF]4 || .[FA]/.[GB]/ [Ac]2 [FA] | .[DG].[B,D] .[DG].[B,D] | %10
 .[B,E].[B,C] .[B,E].[B,C] | .[DF]/.[EG]/ [FA]3 | .[FA]/.[GB]/ [Ac]2 [FA] | ^GE GE | =B^G Bd | %15
 c/=B/ A3 | [Dd]3 B | [A,A]2 [G,G]2 | [F,F]2 [G,E][B,G] | [A,F]4 | [_E_G]/[F_A]/ [GB]2 [EG] | %21
 F_D FD | _E[=A,C] E[A,C] | [B,_D]/[C_E]/ [DF]3 | z [_A,=B,F]2 [A,B,F] | z [G,CE]2 [_A,DF] | %26
 z [G,B,E] z [_A,=B,F] | [Ec].C .C.C | .C.=B,/.C/ .D/.E/.F/.G/ | [CFA] z [=B,F^G] z | [CFA]4 | %31
 [B,CG] z [B,C^F] z | [B,CG]4 | z [EBd]/D/ z [EA^c]/^C/ | z [DBd] [EBe]2 | z [Ac]/C/ z [^G=B]/C/ | %36
 z [CFAc] [DFAd]2 | [CFA] z [=B,F^G] z | [CFA]4 | [CG] z [C^F] z | G4 | [A,CF]3 [CFc] | %42
 [CE][CF] [CE^F][CEG] | [=B,D]3 [B,E] | C/D/E/F/ G/A/B/c/ | z [EBd]/D/ z [EA^c]/^C/ | %46
 z [DBd] [EBe]2 | z [Ac]/C/ z [^G=B]/C/ | z [Fc] [CA][CG] | ^F4 | [=F,=B,]4 | %51
 !fermata![E,_B,D]2 [E,B,E]!fermata![Ec] | [A,F] z z2 | z4 | (d/e/f/d/ c/A/F/G/ | A) [FA]2 (F/G/ | %56
 A) [FA]2 [EG] | [CF]4 || .[FA]/.[GB]/ [Ac]2 [FA] | .[DG].[B,D] .[DG].[B,D] | %60
 .[B,E].[B,C] .[B,E].[B,C] | .[DF]/.[EG]/ [FA]3 | .[FA]/.[GB]/ [Ac]2 [FA] | ^GE GE | =B^G Bd | %65
 c/=B/ A3 | [Dd]3 B | [A,A]2 [G,G]2 | [F,F]2 [G,E][B,G] | [A,F]4 | [_E_G]/[F_A]/ [GB]2 [EG] | %71
 F_D FD | _E[=A,C] E[A,C] | [B,_D]/[C_E]/ [DF]3 | z [_A,=B,F]2 [A,B,F] | z [G,CE]2 [_A,DF] | %76
 z [G,B,E] z [_A,=B,F] | [Ec].C .C.C | .C.=B,/.C/ .D/.E/.F/.G/ | [CFA] z [=B,F^G] z | [CFA]4 | %81
 [B,CG] z [B,C^F] z | [B,CG]4 | z [EBd]/D/ z [EA^c]/^C/ | z [DBd] [EBe]2 | z [Ac]/C/ z [^G=B]/C/ | %86
 z [CFAc] [DFAd]2 | [CFA] z [=B,F^G] z | [CFA]4 | [CG] z [C^F] z | G4 | [A,CF]3 [CFc] | %92
 [CE][CF] [CE^F][CEG] | [=B,D]3 [B,E] | C/D/E/F/ G/A/B/c/ | z [EBd]/D/ z [EA^c]/^C/ | %96
 z [DBd] [EBe]2 | z [Ac]/C/ z [^G=B]/C/ | z [Fc] [CA][CG] | ^F4 | [=F,=B,]4 | %101
 !fermata![E,_B,D]2 [E,B,E]!fermata![Ec] | [A,F]3 .C | .D.E .F.G | %104
 .[CFA].[CFA]/.[CFA]/ .[=B,F^G].[B,FG] | .[CFA] [CFA]3 | .[B,CG].[B,CG]/.[B,CG]/ .[B,C^F].[B,CF] | %107
 [B,CG]4 | .[EBd].[EBd]/.[EBd]/ .[EB^c]/.[EBc]/.[EBc] | .[EBd].[EBd] !>![EBe]2 | %110
 .[FAc].[FAc]/.[FAc]/ .[F^G=B]/.[FGB]/.[FGB] | .[FAc].[FAc] !>![FAd]2 | %112
 .[CFA].[CFA]/.[CFA]/ .[=B,F^G].[B,FG] | .[CFA] [CFA]3 | .[CG].[CG]/.[CG]/ .[C^F].[CF] | G4 | %116
 FG Ac | [CE][CEF] [CE^F][CEG] | =FE/E/ DE | C/D/E/F/ G/A/B/c/ | %120
 .[EBd].[EBd]/.[EBd]/ .[EB^c]/.[EBc]/.[EBc] | .[EBd].[EBd] !>![EBe]2 | %122
 .[FAc].[FAc]/.[FAc]/ .[F^G=B]/.[FGB]/.[FGB]/.[FGB]/ | [FAc][Fc] [CA][CG] | ^F4 | [=F,=B,]4 | %126
 !fermata![E,_B,D]2 [E,B,E]!fermata![Ec] | [A,F]4 | z .D/.F/ .A.c | (d/e/f/d/ c/A/F/G/ | %130
 A) [FA]2 (F/G/ | A) [FA]2 [EG] | F z !>![FAcf] z | !>![A,F] z z2 |] %134
V:5
 B,D A,C | D,A, ^C,B, | C,(C =B,_B, | A,)C, F,A, | B,D A,C | D,A, ^C,B, | C,(C =B,[C,_B,] | %7
 [F,A,]2) F,,2 || F,,C, A,C, | F,,D, G,D, | F,,C, G,C, | F,,C, F,C, | F,,C, A,C, | =B,,E, ^G,E, | %14
 E,,E, ^G,E, | A,,E, A,E, | G,,2 C,,2 | D,,2 B,,,2 | C,,2 C,,2 | F,,C, F,2 | _E,_A, _A,,A, | %21
 _D,_A, _A,,A, | =A,,F, F,,F, | B,,F, B,F, | _D,4 | C,2 =B,,2 | C,2 _D,2 | [C,G,] z z2 | z4 | %29
 F,,C, C,,C, | F,,C, C,,C, | E,,C, ^D,,C, | E,,C, C,,C, | G,,C, C,,=C, | G,,C, C,,2 | F,,C, C,,C, | %36
 F,,C, C,,2 | F,,C, C,,C, | F,,C, C,,C, | E,,C, ^D,,C, | [E,,C,]4 | [D,,D,]3 [D,A,] | %42
 [G,,G,][G,,G,] [G,,G,][G,,G,] | [G,,F,]3 [G,,F,] | [C,E,]4 | G,,C, C,,C, | G,,C, C,,2 | %47
 F,,C, C,,C, | F,,A, F,_E, | [D,,D,]4 | G,,4 | !fermata![C,,C,]2 [C,,C,]!fermata![C,B,] | %52
 F,,.C,/.F,/ .G,.A, | .C.D .E.F | B,D A,C | D,A, _D,B, | C,C =B,[C,_B,] | [F,A,]2 F,,2 || %58
 F,,C, A,C, | F,,D, G,D, | F,,C, G,C, | F,,C, F,C, | F,,C, A,C, | =B,,E, ^G,E, | E,,E, ^G,E, | %65
 A,,E, A,E, | G,,2 C,,2 | D,,2 B,,,2 | C,,2 C,,2 | F,,C, F,2 | _E,_A, _A,,A, | _D,_A, _A,,A, | %72
 =A,,F, F,,F, | B,,F, B,F, | _D,4 | C,2 =B,,2 | C,2 _D,2 | [C,G,] z z2 | z4 | F,,C, C,,C, | %80
 F,,C, C,,C, | E,,C, ^D,,C, | E,,C, C,,C, | G,,C, C,,=C, | G,,C, C,,2 | F,,C, C,,C, | F,,C, C,,2 | %87
 F,,C, C,,C, | F,,C, C,,C, | E,,C, ^D,,C, | [E,,C,]4 | [D,,D,]3 [D,A,] | %92
 [G,,G,][G,,G,] [G,,G,][G,,G,] | [G,,F,]3 [G,,F,] | [C,E,]4 | G,,C, C,,C, | G,,C, C,,2 | %97
 F,,C, C,,C, | F,,A, F,_E, | [D,,D,]4 | G,,4 | !fermata![C,,C,]2 [C,,C,]!fermata![C,B,] | %102
 F,,.C,/.F,/ .G, z | z4 | F,,C, C,,C, | F,,C, C,,C, | E,,C, ^D,,C, | E,,C, C,,C, | G,,C, C,,C, | %109
 G,,C, C,,2 | F,,C, C,,C, | F,,C, C,,2 | F,,C, C,,C, | F,,C, C,,C, | E,,C, ^D,,C, | [E,,C,]4 | %116
 [D,,D,]3 [D,A,] | [G,,G,][G,,G,] [G,,G,][G,,G,] | [G,,F,]3 [G,,F,] | [C,E,]4 | G,,C, C,,C, | %121
 G,,C, C,,2 | F,,C, C,,C, | F,,A, F,_E, | [D,,D,]4 | G,,4 | %126
 !fermata![C,,C,]2 [C,,C,]!fermata![C,B,] | F,,.C,/.F,/ .G,.A, | .C z z2 | B,D A,C | D,A, _D,B, | %131
 C,C =B,[C,_B,] | [F,A,] z [F,C] z | [F,,F,] z z2 |] %134
V:6
 x4 | x4 | C,4- | C, x3 | x4 | x4 | x4 | x4 || x4 | x4 | x4 | x4 | x4 | x4 | x4 | x4 | x4 | x4 | %18
 x4 | x4 | x4 | x4 | x4 | x4 | x4 | x4 | x4 | x4 | x4 | x4 | x4 | x4 | x4 | x4 | x4 | x4 | x4 | %37
 x4 | x4 | x4 | x4 | x4 | x4 | x4 | x4 | x4 | x4 | x4 | x4 | x4 | x4 | x4 | x4 | x4 | x4 | x4 | %56
 x4 | x4 || x4 | x4 | x4 | x4 | x4 | x4 | x4 | x4 | x4 | x4 | x4 | x4 | x4 | x4 | x4 | x4 | x4 | %75
 x4 | x4 | x4 | x4 | x4 | x4 | x4 | x4 | x4 | x4 | x4 | x4 | x4 | x4 | x4 | x4 | x4 | x4 | x4 | %94
 x4 | x4 | x4 | x4 | x4 | x4 | x4 | x4 | x4 | x4 | x4 | x4 | x4 | x4 | x4 | x4 | x4 | x4 | x4 | %113
 x4 | x4 | x4 | x4 | x4 | x4 | x4 | x4 | x4 | x4 | x4 | x4 | x4 | x4 | x4 | x4 | x4 | x4 | x4 | %132
 x4 | x4 |] %134
V:7
 x4 | x4 | x4 | x4 | x4 | x4 | x4 | x4 || x4 | x4 | x4 | x4 | x4 | D2 D2 | D2 D2 | E C3 | %16
 z [EB] z [B,CE] | z [DF] z [B,D] | z [A,C] x2 | x4 | x4 | x4 | x4 | x4 | x4 | x4 | x4 | x4 | x4 | %29
 x4 | x4 | x4 | x4 | x4 | x4 | x4 | x4 | x4 | x4 | x4 | G,A,/=B,/ CE | x4 | x4 | x4 | x4 | x4 | %46
 x4 | x4 | x4 | C_E DC | x4 | x4 | x4 | x4 | x4 | x4 | x4 | x4 || x4 | x4 | x4 | x4 | x4 | D2 D2 | %64
 D2 D2 | E C3 | z [EB] z [B,CE] | z [DF] z [B,D] | z [A,C] x2 | x4 | x4 | x4 | x4 | x4 | x4 | x4 | %76
 x4 | x4 | x4 | x4 | x4 | x4 | x4 | x4 | x4 | x4 | x4 | x4 | x4 | x4 | G,A,/=B,/ CE | x4 | x4 | %93
 x4 | x4 | x4 | x4 | x4 | x4 | C_E DC | x4 | x4 | x4 | x4 | x4 | x4 | x4 | x4 | x4 | x4 | x4 | x4 | %112
 x4 | x4 | x4 | [G,C]A,/=B,/ CE | [A,C]3 [CF] | x4 | =B,3 B, | x4 | x4 | x4 | x4 | x4 | C_E DC | %125
 x4 | x4 | x4 | x4 | x4 | x4 | x4 | x4 | x4 |] %134

